X: 36171
T: Scotsman Over The Border, The
R: jig
M: 6/8
K: Dmixolydian
DED FDF|AFA d2c|~B3 BAB|def edB|
ADD FDF|AFA d2c|~B3 AFA|dAF EFE:|
|:dfa afa|bag ~f2e|dfa afe|def edB|
dfa afa|bag ~f2e|d2B AFA|dAF ~E3:|

